X:454
T:Jaun Kaputxin
Z:Jack Campin, http://www.campin.me.uk/
F:Jack Campin's Nine-Note Tunebook
% last edit 03-02-2013
B:J.M. de Arratia, Cancionero Popular del Pais Vasco
M:2/4
L:1/8
Q:1/4=100
K:GMin
G2 ^FG|A2 A2|B2  B2|A4 |\
G2 =FG|A2 G2|F2 =E2|D4 |
G2 ^FG|A2 A2|B2  B2|A4 |\
d2  dc|d2 A2|B2  A2|G4|]

